X:1
T:LA MER
T:LA MER
T:Musique: Charles Trenet et Albert Lasry-Paroles: Charles Trenet           Harmonisation: Pierre Bigot
%%score [ 1 2 3 ]
L:1/8
M:4/4
K:F
V:1 treble nm="Soprano" snm="S."
V:2 treble nm="Alto" snm="A."
V:3 treble-8 nm="Hommes" snm="H."
V:1
 C2 |:S"^Moderato" F8- | F4 (3E2 F2 G2 | A6 F2 | G4 (3E2 D2 C2 | A8- | A4 (3G2 A2 B2 | c3 F F3 F | %8
w: La|mer|_ qu'on voit dan-|ser le|long des gol- fes|clairs|_ A des re-|flets d'ar- gent. La|
w: |mer|_ au ciel d'é-|té, con-|fond ses blancs mou-|tons|_ A- vec les|anges si purs. La|
 d8- | d2 d2 (3c2 A2 G2 | F4 D2 F2 |1 G8 | C4 z2 C2 :|2 G8 || F4 z2 E2 | A8- | A4 (3^G2 A2 =B2 | %17
w: mer|_ Des re- flets chan-|geants Sous la|plui-|e La|ni-|e Voy-|ez|_ près des é-|
w: mer|_ Ber- gè- re d'a-|zur in fi|||||||
 ^c6 A2 | B4 (3^G2 ^F2 E2 | E8- | E4 z2 G2 | c8- | c4 (3=B2 c2 d2 | e6 c2 | d4 (3=B2 A2 G2 | c8- | %26
w: tangs, Ces|grands ro- seaux mouil-|lés|_ Voy-|ez|_ ces oi- seaux|blancs, Et|ces mai- sons rouil-|lées|
w: |||||||||
 c2 z2 z2 C2 | F8- | F4 (3E2 F2 G2 | A6 F2 | G4 (3E2 D2 C2 | A8- | A4 (3G2 A2 B2 | c3 F F3 F | %34
w: _ La|mer|_ Les a ber-|cés Le|long des gol- fes|clairs|_ Et d'une chan-|son d'a- mour, La|
w: ||||||||
 d8- | d2 d2 (3c2 A2 G2 | F4 D2 F2 |1 G8 | F4 z2 C2 :|2 G8!D.S.! | F8!fine! |] %41
w: mer|_ a ber- cé mon|coeur pour la|vi-|e La|vi-|e|
w: |||||||
V:2
 z2 |: z4 (F2 E2) | D4 (3C2 D2 E2 | F2 G2 F2 E2 | D4 C4 | F2 G2 F2 E2 | F4 (3F2 E2 D2 | F3 F F3 F | %8
w: |La _|mer qu'on voit dan-|ser, qu'on voit dan-|ser le|long des gol- fes|clairs A des re-|flets d'ar gent. La|
w: |La _|mer au ciel d'é-|té, au ciel d'é-|té con-|fond ses blancs mou-|tons A- vec les|anges si purs. La|
 F4 (^F2 A2) | G2 F2 (3E2 E2 E2 | (F2 E2) D2 C2 |1 (D2 F2 E2 D2) | E4 z4 :|2 (D2 F2 E2 C2) || %14
w: mer, la _|mer. Des re- flets chan-|geants _ Sous la|plui _ _ _|e|ni _ _ _|
w: mer, la _|mer. Ber- gè- re d'a-|zur _ in- fi-||||
 C4 z4 | z4 (A2 ^G2) | ^F4 (3E2 F2 ^G2 | A2 =B2 A2 ^G2 | ^F4 E4 | E2 D2 ^C2 D2 | ^C4 z4 | %21
w: e|Voy _|ez près des é-|tangs, près des é-|tangs Ces|grands ro- seaux mouil-|lés.|
w: |||||||
 z4 (c2 =B2) | A4 (3G2 A2 =B2 | c2 d2 c2 =B2 | A4 G4 | G2 A2 G2 F2 | E4 C4 | C4 (F2 E2) | %28
w: Voy _|ez ces oi- seaux|blancs, ces oi- seaux|blancs Et|ces mai- sons rouil-|lées. La|mer, la _|
w: |||||||
 D4 (3C2 D2 E2 | F2 G2 F2 E2 | D4 C4 | F2 G2 F2 E2 | F4 (3F2 E2 D2 | F3 F F3 F | F4 (^F2 A2) | %35
w: mer, Les a ber-|cés, les a ber-|cés. Le|long des gol- fes|clairs. Et d'une chan-|son d'a- mour, La|mer, la _|
w: |||||||
 G2 F2 (3E2 E2 E2 | (F2 E2) D2 C2 |1 (D2 F2 E2 C2) | C4 z4 :|2 (D2 F2 E2 C2) | C8 |] %41
w: mer a ber- cé mon|coeur _ pour la|vi _ _ _|e|vi _ _ _|e|
w: ||||||
V:3
 z2 |: z4 (D2 C2) | B,4 (3C2 C2 C2 | F2 E2 D2 C2 | B,4 C4 | F2 A,2 =B,2 ^C2 | D4 (3D2 C2 B,2 | %7
w: |La _|mer qu'on voit dan-|ser, qu'on voit dan-|ser le|long des gol- fes|clairs A des re-|
w: |La _|mer au ciel d'é-|té, au ciel d'é-|té con-|fond ses blancs mou-|tons A- vec les|
 A,3 A, D3 D | B,4 (A,2 C2) | B,2 B,2 (3C2 C2 ^C2 | (D2 C2) B,2 A,2 |1 (=B,2 D2 C2 B,2) | C4 z4 :|2 %13
w: flets d'ar gent. La|mer, la _|mer. Des re- flets chan-|geants _ Sous la|plui _ _ _|e|
w: anges si purs. La|mer, la _|mer. Ber- gè- re d'a-|zur _ in- fi-|||
 (B,2 D2 C2 B,2) || A,4 z4 | z4 (^F2 E2) | D4 (3E2 E2 E2 | A2 ^G2 ^F2 E2 | D4 D4 | %19
w: ni _ _ _|e|Voy _|ez près des é-|tangs, près des é-|tangs Ces|
w: ||||||
 ^C2 =B,2 A,2 B,2 | A,4 z4 | z4 (A2 G2) | F4 (3G2 G2 G2 | c2 =B2 A2 G2 | F4 F4 | E2 F2 E2 D2 | %26
w: grands ro- seaux mouil-|lés.|Voy _|ez ces oi- seaux|blancs, ces oi- seaux|blancs Et|ces mai- sons rouil-|
w: |||||||
 C4 B,4 | A,4 (D2 C2) | B,4 (3C2 C2 C2 | F2 E2 D2 C2 | B,4 C4 | F2 A,2 =B,2 ^C2 | D4 (3D2 C2 B,2 | %33
w: lées. La|mer, la _|mer, Les a ber-|cés, les a ber-|cés. Le|long des gol- fes|clairs. Et d'une chan-|
w: |||||||
 A,3 A, D3 D | B,4 (A,2 C2) | B,2 B,2 (3C2 C2 ^C2 | (D2 C2) B,2 A,2 |1 (B,2 D2 C2 B,2) | A,4 z4 :|2 %39
w: son d'a- mour, La|mer, la _|mer a ber- cé mon|coeur _ pour la|vi _ _ _|e|
w: ||||||
 (B,2 D2 C2 B,2) | A,8 |] %41
w: vi _ _ _|e|
w: ||

